svgs/regular/hourglass.svg

<svg xmlns="http://www.w3.org/2000/svg" viewBox="0 0 384 512"><!--! Font Awesome Free 7.2.0 by @fontawesome - https://fontawesome.com License - https://fontawesome.com/license/free (Icons: CC BY 4.0, Fonts: SIL OFL 1.1, Code: MIT License) Copyright 2026 Fonticons, Inc. --><path fill="currentColor" d="M24 0C10.7 0 0 10.7 0 24S10.7 48 24 48l8 0 0 19c0 40.3 16 79 44.5 107.5l81.5 81.5-81.5 81.5C48 366 32 404.7 32 445l0 19-8 0c-13.3 0-24 10.7-24 24s10.7 24 24 24l336 0c13.3 0 24-10.7 24-24s-10.7-24-24-24l-8 0 0-19c0-40.3-16-79-44.5-107.5l-81.5-81.5 81.5-81.5C336 146 352 107.3 352 67l0-19 8 0c13.3 0 24-10.7 24-24S373.3 0 360 0L24 0zM192 289.9l81.5 81.5C293 391 304 417.4 304 445l0 19-224 0 0-19c0-27.6 11-54 30.5-73.5L192 289.9zm0-67.9l-81.5-81.5C91 121 80 94.6 80 67l0-19 224 0 0 19c0 27.6-11 54-30.5 73.5L192 222.1z"/></svg>

<svg xmlns="http://www.w3.org/2000/svg" viewBox="0 0 384 512"><!--! Font Awesome Free 6.5.2 by @fontawesome - https://fontawesome.com License - https://fontawesome.com/license/free (Icons: CC BY 4.0, Fonts: SIL OFL 1.1, Code: MIT License) Copyright 2024 Fonticons, Inc. --><path d="M24 0C10.7 0 0 10.7 0 24S10.7 48 24 48h8V67c0 40.3 16 79 44.5 107.5L158.1 256 76.5 337.5C48 366 32 404.7 32 445v19H24c-13.3 0-24 10.7-24 24s10.7 24 24 24H360c13.3 0 24-10.7 24-24s-10.7-24-24-24h-8V445c0-40.3-16-79-44.5-107.5L225.9 256l81.5-81.5C336 146 352 107.3 352 67V48h8c13.3 0 24-10.7 24-24s-10.7-24-24-24H24zM192 289.9l81.5 81.5C293 391 304 417.4 304 445v19H80V445c0-27.6 11-54 30.5-73.5L192 289.9zm0-67.9l-81.5-81.5C91 121 80 94.6 80 67V48H304V67c0 27.6-11 54-30.5 73.5L192 222.1z"/></svg>
